icons/svg/shields/h_lounger_shield.svg

<?xml version="1.0" encoding="UTF-8" standalone="no"?>
<svg
   xmlns:dc="http://purl.org/dc/elements/1.1/"
   xmlns:cc="http://creativecommons.org/ns#"
   xmlns:rdf="http://www.w3.org/1999/02/22-rdf-syntax-ns#"
   xmlns:svg="http://www.w3.org/2000/svg"
   xmlns="http://www.w3.org/2000/svg"
   xmlns:sodipodi="http://sodipodi.sourceforge.net/DTD/sodipodi-0.dtd"
   xmlns:inkscape="http://www.inkscape.org/namespaces/inkscape"
   width="16"
   height="16"
   viewBox="0 0 16 16"
   fill="none"
   version="1.1"
   id="svg4"
   sodipodi:docname="h_lounger_shield.svg"
   inkscape:version="0.92.5 (2060ec1f9f, 2020-04-08)">
  <metadata
     id="metadata10">
    <rdf:RDF>
      <cc:Work
         rdf:about="">
        <dc:format>image/svg+xml</dc:format>
        <dc:type
           rdf:resource="http://purl.org/dc/dcmitype/StillImage" />
        <dc:title></dc:title>
      </cc:Work>
    </rdf:RDF>
  </metadata>
  <defs
     id="defs8" />
  <sodipodi:namedview
     pagecolor="#ffffff"
     bordercolor="#666666"
     borderopacity="1"
     objecttolerance="10"
     gridtolerance="10"
     guidetolerance="10"
     inkscape:pageopacity="0"
     inkscape:pageshadow="2"
     inkscape:window-width="1920"
     inkscape:window-height="1014"
     id="namedview6"
     showgrid="true"
     inkscape:zoom="29.5"
     inkscape:cx="5.11007"
     inkscape:cy="9.1135773"
     inkscape:window-x="1920"
     inkscape:window-y="0"
     inkscape:window-maximized="1"
     inkscape:current-layer="svg4">
    <inkscape:grid
       type="xygrid"
       id="grid825"
       spacingx="1"
       spacingy="1" />
  </sodipodi:namedview>
  <path
     sodipodi:type="inkscape:offset"
     inkscape:radius="1.0152938"
     inkscape:original="M 14.666016 2.6660156 L 9.3339844 6.6660156 L 1.3339844 6.6660156 L 1.3339844 12 L 2.6660156 12 L 2.6660156 9.3339844 L 10 9.3339844 L 13.333984 6.6660156 L 13.333984 12 L 14.666016 12 L 14.666016 2.6660156 z "
     style="opacity:0.8;vector-effect:none;fill:#ebe7e4;fill-opacity:1;stroke-width:1.25;stroke-linecap:butt;stroke-linejoin:miter;stroke-miterlimit:4;stroke-dasharray:none;stroke-dashoffset:0;stroke-opacity:1"
     id="path2-3"
     d="m 14.636719,1.6503906 a 1.0153954,1.0153954 0 0 0 -0.580078,0.203125 L 8.9960938,5.6503906 H 1.3339844 A 1.0153954,1.0153954 0 0 0 0.31835938,6.6660156 V 12 A 1.0153954,1.0153954 0 0 0 1.3339844,13.015625 H 2.6660156 A 1.0153954,1.0153954 0 0 0 3.6816406,12 V 10.349609 H 10 a 1.0153954,1.0153954 0 0 0 0.634766,-0.222656 L 12.318359,8.7792969 V 12 a 1.0153954,1.0153954 0 0 0 1.015625,1.015625 h 1.332032 A 1.0153954,1.0153954 0 0 0 15.681641,12 V 2.6660156 a 1.0153954,1.0153954 0 0 0 -1.044922,-1.015625 z"
     transform="matrix(0.8,0,0,0.8,1.6000001,1.4665586)" />
</svg>

<svg width="16" height="16" fill="none" version="1.1" viewBox="0 0 16 16" xmlns="http://www.w3.org/2000/svg">
 <path transform="matrix(.8 0 0 .8 1.6 1.4666)" d="m14.637 1.6504a1.0154 1.0154 0 0 0-0.58008 0.20312l-5.0605 3.7969h-7.6621a1.0154 1.0154 0 0 0-1.0156 1.0156v5.334a1.0154 1.0154 0 0 0 1.0156 1.0156h1.332a1.0154 1.0154 0 0 0 1.0156-1.0156v-1.6504h6.3184a1.0154 1.0154 0 0 0 0.63477-0.22266l1.6836-1.3477v3.2207a1.0154 1.0154 0 0 0 1.0156 1.0156h1.332a1.0154 1.0154 0 0 0 1.0156-1.0156v-9.334a1.0154 1.0154 0 0 0-1.0449-1.0156z" fill="#ebe7e4" opacity=".8" stroke-width="1.25"/>
</svg>
